X:65
T:Lass O' Gowrie, The
C:arr. Carlo Minasi
M:2/4
L:1/8
B:Chappell's One Hundred Scotch Melodies
B:Arranged for the Concertina by Carlo Minasi
Q:"Andante  "1/4=100
Z:Peter Dunk 2012
K:C
!p!([G/E/][F/D/])|([EC][GE])([GE][AF])|([cE]>[dF][cE][BG])|\
([AF]>[GE][AF]c)|([dFB,G,]>ed) \
([G/E/][F/D/])|([EC][GE])([GE][AF])|
%
([cE]>[dF][eG]>[dF])|([c/E/]B/A/G/) (G/A/c/E/)|\
L(D2C)||(g/f/)|egce|(g/f/e/f/) (gf/e/)|
%
fadf|(a/g/f/g/) (ag/f/)|(egd>e)|\
(c>AGa)|(gc) (gf/e/)| L([d2F2] [cE])||

